assets/img/home/missao-3.svg

<svg xmlns="http://www.w3.org/2000/svg" xmlns:xlink="http://www.w3.org/1999/xlink" width="1080" zoomAndPan="magnify" viewBox="0 0 810 809.999993" height="1080" preserveAspectRatio="xMidYMid meet" version="1.0"><defs><clipPath id="f911a3af68"><path d="M 26.046875 393 L 777 393 L 777 793 L 26.046875 793 Z M 26.046875 393 " clip-rule="nonzero"/></clipPath></defs><g clip-path="url(#f911a3af68)"><path fill="#f1ae2b" d="M 38.152344 720.082031 C 31.492188 720.082031 26.046875 725.53125 26.046875 732.191406 C 26.046875 738.847656 31.492188 744.296875 38.152344 744.296875 L 122.296875 744.296875 C 135.613281 744.296875 147.117188 733.402344 147.117188 720.082031 L 147.117188 690.421875 C 153.167969 691.027344 159.222656 693.449219 165.882812 695.265625 L 426.183594 790.304688 C 426.183594 790.304688 426.789062 790.304688 426.789062 790.304688 C 431.023438 791.515625 434.65625 792.121094 438.894531 792.121094 C 449.1875 792.121094 459.476562 788.488281 467.953125 781.222656 L 753.070312 543.925781 C 779.101562 521.527344 783.945312 480.96875 763.96875 454.335938 C 753.675781 440.410156 738.542969 431.9375 721.59375 430.121094 C 704.644531 428.304688 688.300781 433.753906 675.585938 444.648438 L 535.75 566.324219 C 538.171875 573.589844 539.382812 581.457031 539.382812 589.933594 C 539.382812 591.75 539.382812 593.566406 538.777344 595.988281 L 691.324219 464.625 C 699.195312 457.96875 708.882812 454.941406 719.171875 456.152344 C 729.460938 457.363281 738.542969 462.203125 744.597656 470.679688 C 757.308594 487.628906 754.28125 513.054688 737.332031 526.976562 L 452.210938 764.273438 C 447.371094 768.511719 440.105469 770.328125 434.050781 768.511719 L 176.777344 674.683594 L 173.75 673.472656 C 165.882812 671.050781 156.800781 668.023438 147.117188 666.8125 L 147.117188 479.152344 L 175.566406 461.597656 C 176.777344 460.992188 177.382812 460.992188 178.59375 460.386719 C 179.199219 460.386719 179.199219 460.386719 179.804688 459.78125 C 181.015625 459.175781 181.621094 459.175781 182.832031 458.570312 C 182.832031 458.570312 183.4375 458.570312 183.4375 458.570312 C 184.042969 458.570312 184.648438 457.96875 185.253906 457.96875 C 185.859375 457.96875 185.859375 457.96875 186.464844 457.363281 C 187.070312 457.363281 187.070312 457.363281 187.675781 457.363281 C 188.28125 457.363281 188.886719 457.363281 189.492188 457.363281 C 189.492188 457.363281 189.492188 457.363281 190.097656 457.363281 C 191.910156 457.363281 193.121094 457.363281 194.332031 457.363281 C 194.332031 457.363281 194.9375 457.363281 194.9375 457.363281 C 195.542969 457.363281 195.542969 457.363281 196.148438 457.363281 C 196.753906 457.363281 197.359375 457.363281 197.964844 457.96875 L 441.921875 541.503906 C 442.527344 541.503906 442.527344 541.503906 443.132812 542.109375 C 466.136719 546.953125 490.347656 568.140625 490.347656 590.539062 C 490.347656 603.855469 484.902344 617.175781 474.609375 625.648438 C 465.53125 633.519531 454.027344 637.152344 442.527344 635.941406 L 291.792969 588.722656 C 285.136719 586.90625 278.476562 590.539062 276.660156 596.59375 C 274.84375 603.25 278.476562 609.910156 284.53125 611.726562 L 436.472656 659.546875 C 437.078125 659.546875 437.683594 660.152344 438.289062 660.152344 C 441.316406 660.757812 444.34375 660.757812 447.371094 660.757812 C 463.109375 660.757812 478.847656 654.707031 490.953125 644.414062 C 506.089844 631.097656 515.167969 611.726562 515.167969 591.144531 C 515.167969 555.429688 481.875 526.371094 449.792969 519.105469 L 205.230469 433.753906 C 204.625 433.753906 204.019531 433.148438 203.414062 433.148438 C 195.542969 431.9375 187.675781 431.332031 175.566406 434.964844 C 172.539062 436.175781 168.910156 437.386719 165.277344 439.199219 C 164.671875 439.199219 164.671875 439.804688 164.066406 439.804688 L 147.117188 450.097656 L 147.117188 417.410156 C 147.117188 404.089844 136.21875 393.195312 122.296875 393.195312 L 38.152344 393.195312 C 31.492188 393.195312 26.046875 398.640625 26.046875 405.300781 C 26.046875 411.960938 31.492188 417.410156 38.152344 417.410156 L 122.902344 417.410156 L 122.296875 720.082031 Z M 38.152344 720.082031 " fill-opacity="1" fill-rule="nonzero"/></g><path fill="#f1ae2b" d="M 710.695312 180.714844 C 705.25 163.765625 687.089844 156.503906 671.347656 149.84375 C 661.664062 145.605469 651.371094 141.367188 647.742188 136.527344 C 644.109375 131.078125 642.898438 119.574219 642.292969 109.285156 C 641.082031 92.335938 639.265625 72.964844 625.34375 62.671875 C 611.417969 52.382812 592.652344 56.621094 576.308594 60.855469 C 566.019531 63.277344 554.515625 65.699219 548.464844 63.882812 C 543.015625 62.066406 535.144531 53.59375 528.488281 45.722656 C 516.984375 32.40625 503.667969 17.878906 486.113281 17.878906 C 468.558594 17.878906 455.238281 32.40625 444.34375 45.722656 C 437.683594 53.59375 430.417969 62.066406 424.367188 63.882812 C 418.3125 65.699219 406.8125 63.277344 396.519531 60.855469 C 380.175781 57.226562 361.410156 52.988281 347.488281 62.671875 C 333.5625 72.964844 331.746094 92.335938 330.535156 109.285156 C 329.933594 119.574219 328.722656 131.078125 325.089844 136.527344 C 321.457031 141.367188 310.558594 146.210938 301.480469 149.84375 C 285.742188 156.503906 267.582031 163.765625 262.132812 180.714844 C 256.683594 197.0625 266.976562 212.800781 275.449219 227.328125 C 280.292969 237.015625 286.347656 247.304688 286.347656 253.964844 C 286.347656 260.621094 280.292969 270.914062 274.84375 279.992188 C 266.371094 294.523438 256.683594 310.867188 261.527344 326.605469 C 266.976562 343.554688 285.136719 350.820312 300.875 357.480469 C 310.558594 361.714844 320.851562 365.953125 324.484375 370.796875 C 328.117188 376.246094 329.328125 387.746094 329.933594 398.039062 C 331.140625 414.988281 332.957031 434.359375 346.882812 444.648438 C 360.804688 454.941406 379.570312 450.703125 395.914062 446.464844 C 406.207031 444.042969 417.707031 441.621094 423.761719 443.4375 C 429.210938 445.253906 437.078125 453.730469 443.738281 461.597656 C 455.238281 474.917969 467.953125 489.445312 485.507812 489.445312 C 503.0625 489.445312 516.378906 474.917969 527.277344 461.597656 C 533.933594 453.730469 541.199219 445.253906 547.253906 443.4375 C 553.304688 441.621094 564.808594 444.042969 575.097656 446.464844 C 591.441406 450.097656 610.207031 454.335938 624.132812 444.648438 C 638.054688 434.359375 639.871094 414.988281 641.082031 398.039062 C 641.6875 387.746094 642.898438 376.246094 646.53125 370.796875 C 650.160156 365.953125 661.058594 361.109375 670.136719 357.480469 C 685.878906 350.820312 704.039062 343.554688 709.488281 326.605469 C 714.933594 310.261719 704.644531 294.523438 696.167969 279.992188 C 690.71875 270.308594 684.667969 260.621094 684.667969 253.964844 C 684.667969 247.304688 690.71875 237.015625 696.167969 227.933594 C 705.855469 213.40625 716.144531 197.0625 710.695312 180.714844 Z M 676.796875 215.222656 C 669.53125 227.328125 661.664062 240.644531 661.664062 253.964844 C 661.664062 267.28125 669.53125 279.992188 676.796875 292.707031 C 682.246094 302.390625 689.507812 313.894531 687.695312 319.339844 C 685.878906 325.394531 673.164062 330.84375 662.269531 335.6875 C 649.558594 341.132812 635.632812 346.582031 628.371094 357.480469 C 620.5 368.375 619.289062 382.902344 618.078125 396.828125 C 616.867188 408.933594 615.65625 422.25 610.8125 425.882812 C 605.972656 429.515625 592.046875 426.488281 581.152344 424.066406 C 567.230469 421.039062 552.699219 417.410156 539.988281 421.644531 C 527.882812 425.882812 518.195312 436.175781 509.117188 447.070312 C 501.851562 455.546875 492.769531 465.835938 486.113281 465.835938 C 479.453125 465.835938 470.371094 455.546875 462.503906 446.464844 C 453.421875 435.570312 443.738281 424.671875 431.628906 421.039062 C 427.394531 419.828125 423.15625 419.222656 418.3125 419.222656 C 409.234375 419.222656 399.546875 421.644531 390.464844 423.460938 C 379.570312 425.882812 366.253906 428.910156 360.804688 425.277344 C 355.960938 421.644531 354.75 408.328125 353.539062 396.222656 C 352.328125 382.296875 351.117188 367.769531 343.25 356.875 C 335.378906 346.582031 322.0625 340.527344 309.351562 335.082031 C 298.453125 330.238281 285.742188 325.394531 283.925781 318.734375 C 282.109375 313.289062 289.375 301.179688 294.820312 292.101562 C 302.085938 279.992188 309.957031 266.675781 309.957031 253.359375 C 309.957031 240.039062 302.085938 227.328125 294.820312 214.617188 C 289.375 204.929688 282.109375 193.429688 283.925781 187.980469 C 285.742188 181.925781 298.453125 176.480469 309.351562 171.636719 C 322.0625 166.1875 335.984375 160.738281 343.25 149.84375 C 351.117188 138.945312 352.328125 124.417969 353.539062 110.496094 C 354.75 98.390625 355.960938 85.070312 360.804688 81.4375 C 365.648438 77.808594 379.570312 80.832031 390.464844 83.253906 C 404.390625 86.28125 418.917969 89.914062 431.628906 85.675781 C 443.738281 81.4375 453.421875 71.148438 462.503906 60.25 C 470.371094 52.382812 479.453125 42.089844 486.113281 42.089844 C 492.769531 42.089844 501.851562 52.382812 509.722656 61.460938 C 518.800781 72.359375 528.488281 83.253906 540.59375 86.886719 C 553.304688 91.125 567.835938 87.492188 581.757812 84.464844 C 592.652344 82.042969 605.972656 79.019531 611.417969 82.648438 C 616.261719 86.28125 617.472656 99.597656 618.683594 111.707031 C 619.894531 125.628906 621.105469 140.15625 628.976562 151.054688 C 636.84375 161.34375 650.160156 167.398438 662.875 172.847656 C 673.769531 177.691406 686.484375 182.53125 688.300781 189.191406 C 689.507812 194.035156 682.246094 205.535156 676.796875 215.222656 Z M 676.796875 215.222656 " fill-opacity="1" fill-rule="nonzero"/><path fill="#f1ae2b" d="M 486.113281 90.519531 C 395.914062 90.519531 322.667969 163.765625 322.667969 253.964844 C 322.667969 344.160156 395.914062 417.410156 486.113281 417.410156 C 576.308594 417.410156 649.554688 344.160156 649.554688 253.964844 C 649.554688 163.765625 576.308594 90.519531 486.113281 90.519531 Z M 486.113281 393.195312 C 409.234375 393.195312 346.882812 330.84375 346.882812 253.964844 C 346.882812 177.085938 409.234375 114.734375 486.113281 114.734375 C 562.992188 114.734375 625.34375 177.085938 625.34375 253.964844 C 625.34375 330.84375 562.992188 393.195312 486.113281 393.195312 Z M 486.113281 393.195312 " fill-opacity="1" fill-rule="nonzero"/><path fill="#f1ae2b" d="M 556.332031 191.007812 L 455.84375 291.496094 L 415.890625 251.542969 C 411.046875 246.699219 403.785156 246.699219 398.941406 251.542969 C 394.097656 256.386719 394.097656 263.648438 398.941406 268.492188 L 447.371094 316.921875 C 449.792969 319.339844 452.816406 320.550781 455.84375 320.550781 C 458.871094 320.550781 461.898438 319.339844 464.320312 316.921875 L 573.28125 207.957031 C 578.125 203.113281 578.125 195.851562 573.28125 191.007812 C 568.441406 186.164062 561.175781 186.164062 556.332031 191.007812 Z M 556.332031 191.007812 " fill-opacity="1" fill-rule="nonzero"/></svg>

<svg xmlns="http://www.w3.org/2000/svg" width="1080" height="1080" version="1.0" viewBox="0 0 810 810">
  <defs>
    <clipPath id="a">
      <path d="M26.047 393H777v400H26.047Zm0 0"/>
    </clipPath>
  </defs>
  <g clip-path="url(#a)">
    <path fill="#f1ae2b" d="M38.152 720.082c-6.66 0-12.105 5.45-12.105 12.11 0 6.656 5.445 12.105 12.105 12.105h84.145c13.316 0 24.82-10.895 24.82-24.215v-29.66c6.051.605 12.106 3.027 18.766 4.844l260.3 95.039h.606c4.234 1.21 7.867 1.816 12.106 1.816 10.293 0 20.582-3.633 29.058-10.898L753.07 543.926c26.032-22.399 30.875-62.957 10.899-89.59-10.293-13.926-25.426-22.399-42.375-24.215-16.95-1.816-33.293 3.633-46.008 14.527L535.75 566.324c2.422 7.266 3.633 15.133 3.633 23.61 0 1.816 0 3.632-.606 6.054l152.547-131.363c7.871-6.656 17.559-9.684 27.848-8.473 10.289 1.211 19.371 6.051 25.426 14.528 12.71 16.949 9.683 42.375-7.266 56.297L452.211 764.273c-4.84 4.239-12.106 6.055-18.16 4.239l-257.274-93.828-3.027-1.211c-7.867-2.422-16.95-5.45-26.633-6.66v-187.66l28.45-17.555c1.21-.606 1.816-.606 3.027-1.211.605 0 .605 0 1.21-.606 1.212-.605 1.817-.605 3.028-1.21h.606c.605 0 1.21-.602 1.816-.602.605 0 .605 0 1.21-.606h9.685c.606 0 1.211 0 1.817.606l243.957 83.535c.605 0 .605 0 1.21.605 23.005 4.844 47.216 26.032 47.216 48.43 0 13.316-5.446 26.637-15.739 35.11-9.078 7.87-20.582 11.503-32.082 10.292l-150.734-47.218c-6.656-1.817-13.316 1.816-15.133 7.87-1.816 6.657 1.817 13.317 7.871 15.134l151.942 47.82c.605 0 1.21.605 1.816.605 3.027.606 6.055.606 9.082.606 15.738 0 31.477-6.051 43.582-16.344 15.137-13.316 24.215-32.687 24.215-53.27 0-35.714-33.293-64.773-65.375-72.039L205.23 433.754c-.605 0-1.21-.606-1.816-.606-7.871-1.21-15.738-1.816-27.848 1.817-3.027 1.21-6.656 2.422-10.289 4.234-.605 0-.605.606-1.21.606l-16.95 10.293V417.41c0-13.32-10.898-24.215-24.82-24.215H38.152c-6.66 0-12.105 5.446-12.105 12.106s5.445 12.11 12.105 12.11h84.75l-.605 302.671Zm0 0"/>
  </g>
  <path fill="#f1ae2b" d="M710.695 180.715c-5.445-16.95-23.605-24.211-39.347-30.871-9.684-4.239-19.977-8.477-23.606-13.317-3.633-5.449-4.844-16.953-5.449-27.242-1.211-16.95-3.027-36.32-16.95-46.613-13.925-10.29-32.69-6.05-49.034-1.817-10.29 2.422-21.793 4.844-27.844 3.028-5.45-1.817-13.32-10.29-19.977-18.16-11.504-13.317-24.82-27.844-42.375-27.844-17.554 0-30.875 14.527-41.77 27.844-6.66 7.87-13.925 16.343-19.976 18.16-6.055 1.816-17.555-.606-27.847-3.028-16.344-3.628-35.11-7.867-49.032 1.817-13.925 10.293-15.742 29.664-16.953 46.613-.601 10.29-1.812 21.793-5.445 27.242-3.633 4.84-14.531 9.684-23.61 13.317-15.738 6.66-33.898 13.922-39.347 30.87-5.45 16.349 4.844 32.087 13.316 46.614 4.844 9.688 10.899 19.977 10.899 26.637 0 6.656-6.055 16.95-11.504 26.027-8.473 14.531-18.16 30.875-13.317 46.613 5.45 16.95 23.61 24.215 39.348 30.875 9.684 4.235 19.977 8.473 23.61 13.317 3.632 5.45 4.843 16.95 5.449 27.242 1.207 16.95 3.023 36.32 16.949 46.61 13.922 10.292 32.687 6.054 49.031 1.816 10.293-2.422 21.793-4.844 27.848-3.027 5.449 1.816 13.316 10.292 19.976 18.16 11.5 13.32 24.215 27.847 41.77 27.847 17.555 0 30.87-14.527 41.77-27.847 6.656-7.868 13.921-16.344 19.976-18.16 6.05-1.817 17.555.605 27.844 3.027 16.343 3.633 35.109 7.87 49.035-1.817 13.922-10.289 15.738-29.66 16.949-46.609.606-10.293 1.816-21.793 5.45-27.242 3.628-4.844 14.527-9.688 23.605-13.317 15.742-6.66 33.902-13.925 39.351-30.875 5.446-16.343-4.843-32.082-13.32-46.613-5.45-9.683-11.5-19.37-11.5-26.027 0-6.66 6.05-16.95 11.5-26.031 9.687-14.528 19.977-30.871 14.527-47.22Zm-33.898 34.508c-7.266 12.105-15.133 25.422-15.133 38.742 0 13.316 7.867 26.027 15.133 38.742 5.45 9.684 12.71 21.188 10.898 26.633-1.816 6.055-14.53 11.504-25.425 16.348-12.711 5.445-26.637 10.894-33.899 21.792-7.871 10.895-9.082 25.422-10.293 39.348-1.21 12.106-2.422 25.422-7.265 29.055-4.84 3.633-18.766.605-29.66-1.817-13.923-3.027-28.454-6.656-41.165-2.421-12.105 4.238-21.793 14.53-30.87 25.425-7.266 8.477-16.348 18.766-23.005 18.766-6.66 0-15.742-10.29-23.61-19.371-9.081-10.895-18.765-21.793-30.874-25.426-4.234-1.21-8.473-1.816-13.317-1.816-9.078 0-18.765 2.422-27.847 4.238-10.895 2.422-24.211 5.45-29.66 1.816-4.844-3.632-6.055-16.949-7.266-29.054-1.21-13.926-2.422-28.453-10.289-39.348-7.871-10.293-21.188-16.348-33.898-21.793-10.899-4.844-23.61-9.687-25.426-16.348-1.817-5.445 5.449-17.554 10.894-26.632 7.266-12.11 15.137-25.426 15.137-38.743 0-13.32-7.871-26.03-15.137-38.742-5.445-9.687-12.71-21.187-10.894-26.637 1.816-6.054 14.527-11.5 25.426-16.343 12.71-5.45 26.632-10.899 33.898-21.793 7.867-10.899 9.078-25.426 10.29-39.348 1.21-12.105 2.42-25.426 7.265-29.058 4.843-3.63 18.765-.606 29.66 1.816 13.926 3.027 28.453 6.66 41.164 2.422 12.11-4.239 21.793-14.528 30.875-25.426 7.867-7.867 16.95-18.16 23.61-18.16 6.656 0 15.738 10.293 23.609 19.37 9.078 10.9 18.765 21.794 30.87 25.427 12.712 4.238 27.243.605 41.165-2.422 10.894-2.422 24.215-5.445 29.66-1.817 4.844 3.633 6.055 16.95 7.266 29.059 1.21 13.922 2.421 28.45 10.293 39.348 7.867 10.289 21.183 16.343 33.898 21.793 10.895 4.843 23.61 9.683 25.426 16.343 1.207 4.844-6.055 16.344-11.504 26.032Zm0 0"/>
  <path fill="#f1ae2b" d="M486.113 90.52c-90.199 0-163.445 73.246-163.445 163.445 0 90.195 73.246 163.445 163.445 163.445 90.196 0 163.442-73.25 163.442-163.445 0-90.2-73.246-163.445-163.442-163.445Zm0 302.675c-76.879 0-139.23-62.351-139.23-139.23 0-76.88 62.351-139.23 139.23-139.23 76.88 0 139.23 62.35 139.23 139.23 0 76.879-62.35 139.23-139.23 139.23Zm0 0"/>
  <path fill="#f1ae2b" d="M556.332 191.008 455.844 291.496l-39.953-39.953c-4.844-4.844-12.106-4.844-16.95 0-4.843 4.844-4.843 12.105 0 16.95l48.43 48.429c2.422 2.418 5.445 3.629 8.473 3.629 3.027 0 6.054-1.211 8.476-3.63l108.961-108.964c4.844-4.844 4.844-12.105 0-16.95-4.84-4.843-12.105-4.843-16.949 0Zm0 0"/>
</svg>
